X:1
T:Title
%%score { ( 1 3 ) | 2 }
L:1/8
Q:1/4=100
M:4/4
K:G
V:1 treble nm="Grand Piano"
V:3 treble 
V:2 bass 
V:1
 [B,D]2 [B,G]2 [DB]3 [B,G] | [DB]>[^C_B] [D=B]>[Ec] [DB]4 | B2 A2 A2 B2 | %3
w: Thomas~P.~Westendorf * * *|||
 [CA]>[B,G] [B,G]>[CE] [B,D]4 | [B,D]2 [B,G]2 [DB]3 [B,G] | [DB]>[^C_B] [D=B]>[Ec] [DB]4 | %6
w: |||
 [^CA]3 [CA] [EB]2 [G^c]2 |[M:2/4] [Fd]4 | [Fc]4 |[M:4/4] B4 G4 | [DB]>[^C_B] [D=B]>[Ec] [DB]4 | %11
w: |||||
 B2 A2 E2 F2 | [CA]>[B,G] [B,G]>[CE] [B,D]4 | B4 G4 | [DB]>[^C_B] [D=B]>[Ec] [DB]4 | B2 A2 E2 F2 | %16
w: |||||
 [B,G]6 z2 |] %17
w: |
V:2
 [G,,G,]2 [G,,D,]2 [G,,G,]3 [G,,D,] | [G,,G,]>[G,,G,] [G,,G,]>[G,,G,] [G,,G,]4 | %2
 [D,F,D]2 [D,F,C]2 [D,F,C]2 [D,F,D]2 | [G,,G,]>[G,,D,] [G,,D,]>[G,,G,] [G,,G,]4 | %4
 [G,,G,]2 [G,,D,]2 [G,,G,]3 [G,,D,] | [G,,G,]>[G,,G,] [G,,G,]>[G,,G,] [G,,G,]4 | %6
 [A,,E,]3 [A,,E,] [A,,G,]2 [A,,A,]2 |[M:2/4] [D,A,]4 | [D,A,]4 | %9
[M:4/4] [G,,G,]2 [G,,G,]2 [G,,D,]2 [G,,D,]2 | [G,,G,]>[G,,G,] [G,,G,]>[G,,G,] [G,,G,]4 | %11
 [D,F,D]2 [D,F,C]2 [D,A,C]2 [D,A,C]2 | [G,,G,]>[G,,D,] [G,,D,]>[G,,G,] [G,,G,]4 | %13
 [G,,G,]2 [G,,G,]2 [G,,D,]2 [G,,D,]2 | [G,,G,]>[G,,G,] [G,,G,]>[G,,G,] [G,,G,]4 | %15
 [D,F,D]2 [D,F,C]2 [D,A,C]2 [D,A,C]2 | [G,,G,]6 z2 |] %17
V:3
 x8 | x8 | x8 | x8 | x8 | x8 | x8 |[M:2/4] x4 | x4 |[M:4/4] D2 D2 B,2 B,2 | x8 | x8 | x8 | %13
 D2 D2 B,2 B,2 | x8 | x8 | x8 |] %17

